X: 10381
M: 3/8
L: 1/16
K: F
V: 1 staves=3
!p!C2DE |\
c2B2G2 | c2A2F2 | !f!A2G2G2 | G4!p!C2 |\
gba.gfe | f4 :: !pp!c2 |\
c4A2 | A4c2 | f2e2d2 | d2c2c2 |\
c2B2g2 | B2A2f2 | A2G2G2 | G2A2B2 |\
c4A2 | A4c2 | b2g2e2 | f2a2Hz2 |\
V: 2
z4 |\
z6 | F2F2F2 | A2A2A2 | A4A2 |\
z6 | F2F2F2 | AfedcB | A4F2 |\
V: 3 clef=bass middle=d
z4 |\
z6 | z6| f2f2f2 | f4f2 |\
c6 | f4A2 | !f!c2c2c2 | c4!p!z2 |\
z6 | z6 | f2f2f2 | f4f2 |\
c2c2c2 | f4 :: !pp!f2 |\
f4f2 | f4f2 | f2f2f2 | f6 |\
c6 | f6 | c2c2c2 | c6 |\
f4f2 | f4f2 | c2c2c2 | f2f2Hz2 |\


